X: 1
T: Keg of Rum
P: piffero primo a0591
O: Roy Watrous
%R: reel
F: http://ancients.sudburymuster.org/mus/sng/pdf/kegorumC0.pdf
Z: 2020 John Chambers <jc:trillian.mit.edu>
M: 2/4
L: 1/16
K: Bm
F2 |\
B^ABc (3dedcd | Bcde f2ef | gAfA eAfA | edcB ^A2F2 |\
B^ABc (3dedcd | Bcde f2ef | gbag fede | f2F2 B2 :|
|: z2 |\
b2b2 a2fa | gfed c2dc | BFcF dFcF | Bcde f2ef |\
gbag f2ef | gAfA e2dc | B^ABc dcde | f2F2 B2 :|
